X: 3
T: Harold's
R: polka
M: 2/4
L: 1/8
K: Dmaj
|:ag fe|df Ad|ce Bc|df Af|
ag fe|df Ad|ce Bc|1 d2 df:|2 d2 dB||
|:Ad de|fg aA|Bc BA|ec BA|
Ad de|fg aA|Bc Bc|1 d2 dB:|2 d2 df||

